svgs/regular/truck-flatbed.svg

<svg xmlns="http://www.w3.org/2000/svg" viewBox="0 0 640 512"><!--! Font Awesome Pro 6.4.2 by @fontawesome - https://fontawesome.com License - https://fontawesome.com/license (Commercial License) Copyright 2023 Fonticons, Inc. --><path d="M368 120c0-13.3 10.7-24 24-24h66.7c14.9 0 29.1 5.9 39.6 16.4l93.3 93.3c10.5 10.5 16.4 24.7 16.4 39.6V368h8c13.3 0 24 10.7 24 24s-10.7 24-24 24H576c0 53-43 96-96 96s-96-43-96-96h-8H256c0 53-43 96-96 96s-96-43-96-96H24c-13.3 0-24-10.7-24-24s10.7-24 24-24H76.8c16.6-28.7 47.6-48 83.2-48s66.6 19.3 83.2 48H368V120zM557.7 239.6l-93.3-93.3c-1.5-1.5-3.5-2.3-5.7-2.3H416v96H558l-.2-.2-.2-.2zM208 416a48 48 0 1 0 -96 0 48 48 0 1 0 96 0zm272 48a48 48 0 1 0 0-96 48 48 0 1 0 0 96z"/></svg>

<svg xmlns="http://www.w3.org/2000/svg" viewBox="0 0 640 512"><!--! Font Awesome Pro 6.1.1 by @fontawesome - https://fontawesome.com License - https://fontawesome.com/license (Commercial License) Copyright 2022 Fonticons, Inc. --><path d="M368 120C368 106.7 378.7 96 392 96H458.7C473.6 96 487.8 101.9 498.3 112.4L591.6 205.7C602.1 216.2 608 230.4 608 245.3V368H616C629.3 368 640 378.7 640 392C640 405.3 629.3 416 616 416H576C576 469 533 512 480 512C426.1 512 384 469 384 416H256C256 469 213 512 160 512C106.1 512 64 469 64 416H24C10.75 416 0 405.3 0 392C0 378.7 10.75 368 24 368H76.84C93.44 339.3 124.5 320 160 320C195.5 320 226.6 339.3 243.2 368H368L368 120zM464.4 146.3C462.9 144.8 460.9 144 458.7 144H416V240H558L557.8 239.8L557.7 239.6L464.4 146.3zM159.1 368C133.5 368 111.1 389.5 111.1 416C111.1 442.5 133.5 464 159.1 464C186.5 464 207.1 442.5 207.1 416C207.1 389.5 186.5 368 159.1 368zM480 464C506.5 464 528 442.5 528 416C528 389.5 506.5 368 480 368C453.5 368 432 389.5 432 416C432 442.5 453.5 464 480 464z"/></svg>
